X: 4214
T: KENNEDY
R: Jig
%R: jig
B: James Kerr "Merry Melodies" v.4 p.24 #214
Z: 2016 John Chambers <jc:trillian.mit.edu>
M: 6/8
L: 1/8
K: G
ud |\
g2d dcd | B2G GFG | ABc DEF | GAB Bcd |\
g2d dcd | B2G GFG | ABc DEF | G3- G2 :|
|: d |\
d2f gfg | b3 bag | bag gfe | ede B3 |\
ede gfg | b3 bag | gfg egf | e3- e2 :|

%%sep 1 1 500
%%sep 1 1 500

